X:6
T:6. Spiritual  —  3rds CCW, bass-and-chord stride
C:Fingering 1 (bass) b1+b3, 2·3·4 (chord stab) b2+b4
M:4/4
L:1/4
Q:1/4=84
K:C clef=bass
"C""_8" C, [E,G,C] C, [E,G,C] | "Am""_8" A, [CEA] A, [CEA] | "F""_8" F, [A,CF] F, [A,CF] | "Dm""_8" D, [F,A,D] D, [F,A,D] | "B°""_8" B, [DFB] B, [DFB] | "G""_8" G, [B,DG] G, [B,DG] | "Em""_8" E, [G,B,E] E, [G,B,E] | "C""_8" C, [E,G,C] C, [E,G,C] |]

% ═════════════════════════════════════════════════════════════════════
% LH PATTERN CATALOG — 4-bar examples on I-IV-V-I in C (bass clef)
% ═════════════════════════════════════════════════════════════════════

